X:1
T:Title
%%score { 1 | 2 }
L:1/8
M:3/4
K:F
V:1 treble nm="Grand Piano"
V:2 bass 
V:1
 z2 z2[Q:1/4=100] C2 | F>G A3 G | B>A c4 | d>c A2 [CF]2 |[M:2/4] [EG]>[FA] [EG]2 |[M:1/4] C2 | %6
[M:3/4] F>G A3 G | B>A c4 | d>c A2 [CF]2 |[M:5/8] [B,EG]>[CEA] [A,F]3 |[M:1/4] [A,CF]2 | %11
[M:3/4] [G,CE]>[A,CF] [B,EG]3 [DEB] | [CEA]>[B,EG] F3 A | G>A B3 [Ed] |[M:2/4] [Fc]>B A2 | %15
[M:1/4] C2 |[M:3/4] F>G A3 G | B>A c4 | d>c A2 [CF]2 |[M:5/8] [B,EG]>[CEA] [A,F]3 |] %20
V:2
 z2 z2 [F,A,]2 | [F,A,C]>[F,B,C] [F,CF]3 [F,B,F] | [F,DF]>[F,CF] [F,A,F]4 | %3
 [F,B,F]>[F,A,F] [F,CF]2 A,,2 |[M:2/4] [C,C]>[C,C] [C,C]2 |[M:1/4] [F,A,]2 | %6
[M:3/4] [F,A,C]>[F,B,C][K:treble] [F,CF]3 [F,B,F] | [F,DF]>[F,CF] [F,A,F]4 | %8
 [B,F]>[A,CF][K:bass] [F,CF]2 A,,2 |[M:5/8] C,>C, F,3 |[M:1/4] F,2 |[M:3/4] C,>C, C,3 C, | %12
 C,>C, [F,A,]3 [F,CF] | [B,CE]>[A,CE] [G,CE]3 [C,B,] |[M:2/4] [D,A,]>[E,G,C] [F,C]2 | %15
[M:1/4] [F,A,]2 |[M:3/4] [F,A,C]>[F,B,C][K:treble] [F,CF]3 [F,B,F] | [F,DF]>[F,CF] [F,A,F]4 | %18
 [B,F]>[A,CF][K:bass] [F,CF]2 A,,2 |[M:5/8] C,>C, F,3 |] %20

